X: 497
T: A' Sireadh Spors
R: reel
M: 4/4
K: Amajor
a|:f>ef<a c2 e>c|B<AB>c e>c B2|c<ee>A c2 a>f|e>cd>B c>AAa:|
c<eA>e c<Ae>A|c<eA>f e>c B2|c<eA>e c<Aa>f|e>cd>B c>AAa|
c<eA>e c<Ae>A|c<ff>c e>c B2|c<ee>A c2 a>f|e>cd>B c>AAa||

